X: 30780
T: Oslo, The
R: waltz
M: 3/4
K: Gmajor
|:(3B^cd|ed (3B^cd GB|D2 G2 B2|E3F G2|D4 G2|F4 A2|d4 c2|B2 BA Bc|B4 (3B#cd|
ed Bd GB|D2 G2 B2|E3F G2|D4 G2|F4 A2|d4 F2|G6|G4:|
|:Bc|d6|g5g|g2 f2 e2|B4 c2|d3e d2|c2 B2 A2|G3F GA|B4 Bc|
d6|g5g|g2 f2 e2|B4 c2|d3e d2|c2 B2 A2|G6|G4:|
A2|B6|B4 A2|G6-|G6|B,2 D2 G2|B2 d2 _e2|e6-|e6|
c6|c4 B2|A6-|A4 G2|F4 A2|d4 c2|B6|DE FG A2|
B6|B4 A2|G6-|G6|B,2 D2 G2|B2 d2 _e2|e6-|e4 f2|
g6|g2 f2 e2|d6|g4 c2|B6|A6|G6-|G4||

